!!!COM: Mozart, Wolfgang Amadeus
!!!OTL: String Quartet No. 10 in C Major
!!!OMD: Menuetto
!!!OMV: 2
!!!SCT1: K<sup>1</sup> 170
!!!SCA: Chronologisch-thematisches Verzeichnis sämtlicher Tonwerke Wolfgang Amade Mozarts (L. von Köchel; 1862, 2/1905, 3/1937, 1947)
!!!SCT2: K<sup>6</sup> 170
!!!YOR: Breitkopf & Härtel Edition
!!!ENC: Frances Bennion
!!!CDT: 1756/1/27/-1791/12/5/
!!!OCY: Österreich
!!!YEC: Copyright (c) 1994, 2000 Center for Computer Assisted Research in the Humanities
!!!YEM: Rights to all derivative editions reserved.
!!!YEM: Refer to licensing agreement for further details.
!!!YEN: United States of America
**kern	**kern	**kern	**kern
*k[]	*k[]	*k[]	*k[]
*C:	*C:	*C:	*C:
*clefC	*clefF	*clefG	*clefG
*M3/4	*M3/4	*M3/4	*M3/4
2r	2r	2r	2r
4r	4r	4g	4gg
=1	=1	=1	=1
4r	4r	4f	4ff
4C	4c	4e	4ee
4D	4c	4f	4ff
=2	=2	=2	=2
4E	2.c	2g	2gg
4C	.	.	.
4F	.	4a	4aa
=3	=3	=3	=3
4r	4r	4c	4cc
4GG	4G	4B	4b
4AA	4G	4c	4cc
=4	=4	=4	=4
4BB	2G	2d	2dd
4D	.	.	.
4G	4r	4r	4r
=5	=5	=5	=5
4GG	2G	2B	4r
2r	.	.	4ff
.	4A	4c	4ff
=6	=6	=6	=6
2.r	4B	4d	12ff
.	.	.	12gg
.	.	.	12ff
.	4c	4e	12ee
.	.	.	12dd
.	.	.	12cc
.	4d	4f	4b
=7	=7	=7	=7
4GG	2G	2B	4r
2r	.	.	4ff
.	4A	4c	4ff
=8	=8	=8	=8
2.r	4B	4d	12ff
.	.	.	12gg
.	.	.	12ff
.	4c	4e	12ee
.	.	.	12dd
.	.	.	12cc
.	4d	4f	4b
=9	=9	=9	=9
2C	4c	4e	4r
.	4e	4a	4cc
4D	4d	4f#	8a
.	.	.	8cc
=10	=10	=10	=10
4G	4d	4g	8b
.	.	.	8dd
4E	4.B	[2g	[2gg
4D	.	.	.
.	16c	.	.
.	16d	.	.
=11	=11	=11	=11
4C	4e	8g]	8gg]
.	.	8e	8ee
4AA	4r	8c	8cc
.	.	8A	8a
4D	4F#	8c	8cc
.	.	8A	8a
=12	=12	=12	=12
4GG	4G	4G	4g
4r	4r	4r	4r
4GG	4G	4g	4g
=13	=13	=13	=13
4FF#	4F#	4f#	4f#
4GG	4G	4g	4g
4GG#	4G#	4g#	4g#
=14	=14	=14	=14
4AA	4A	4a	4a
2r	2r	4b	4r
.	.	4cc#	4gg
=15	=15	=15	=15
2.r	2.r	4dd	4ff
.	.	4g	4bb-
.	.	4a	4cc#
=16	=16	=16	=16
2r	2r	4f	4dd
.	.	4d	4r
4FF	4F	4f	4f
=17	=17	=17	=17
4EE	4E	4e	4e
4FF	4F	4f	4f
4FF#	4F#	4f#	4f#
=18	=18	=18	=18
4GG	4G	4g	4g
2r	2r	4a	4r
.	.	4b	4ff
=19	=19	=19	=19
2.r	2.r	4cc	4ee
.	.	4f	4aa
.	.	4f#	4cc
=20	=20	=20	=20
4G	4g	4g	4b
4D	4d	2r	2r
4BB	4B	.	.
=21	=21	=21	=21
4GG	2G	2B	4r
2r	.	.	4ff
.	4A	4c	4ff
=22	=22	=22	=22
2.r	4B	4d	12ff
.	.	.	12gg
.	.	.	12ff
.	4c	4e	12ee
.	.	.	12dd
.	.	.	12cc
.	4d	4f	4b
=23	=23	=23	=23
4GG	2G	2B	4r
2r	.	.	4ff
.	4A	4c	4ff
=24	=24	=24	=24
2.r	4B	4d	12ff
.	.	.	12gg
.	.	.	12ff
.	4c	4e	12ee
.	.	.	12dd
.	.	.	12cc
.	4d	4f	4b
=25	=25	=25	=25
2AA	4A	4c	4r
.	4c	4f	4ff
4BB	8B	4g	8dd
.	8d	.	8ff
=26	=26	=26	=26
4C	4c	4g	8ee
.	.	.	8gg
4A	4.e	[2cc	[2ccc
4G	.	.	.
.	16f	.	.
.	16g	.	.
=27	=27	=27	=27
4F	4a	8cc]	8ccc]
.	.	8a	8aa
4D	4r	8f	8ff
.	.	8d	8dd
4G	4B	8f	8ff
.	.	8d	8dd
=28	=28	=28	=28
4C	4c	4c	4cc
2r	2r	4r	4r
.	.	4g	4gg
=29	=29	=29	=29
4r	4r	4f	4ff
4C	4c	4e	4ee
4D	4c	4f	4ff
=30	=30	=30	=30
4E	2.c	2g	2gg
4C	.	.	.
4F	.	4a	4aa
=31	=31	=31	=31
2G	4c	4e	4cc
.	4d	4f	4dd
4GG	8c	8e	8cc
.	8B	8d	8b
=32	=32	=32	=32
2C	2c	2c	2cc
4r	4r	4r	4g
=33	=33	=33	=33
2.r	2.r	2.r	8f#
.	.	.	8g
.	.	.	8f#
.	.	.	8g
.	.	.	8f#
.	.	.	8g
=34	=34	=34	=34
2.r	4c	4e-	2G
.	4B	4d	.
.	4r	4r	4gg
=35	=35	=35	=35
2.r	2.r	2.r	8ff#
.	.	.	8gg
.	.	.	8ff#
.	.	.	8gg
.	.	.	8ff#
.	.	.	8gg
=36	=36	=36	=36
2r	4e-	4cc	2g
.	4d	4b	.
4G	4g	4b-	4ee-
=37	=37	=37	=37
2F	2f	2a-	8ee-
.	.	.	8dd
.	.	.	8cc
.	.	.	8b-
4E-	4e-	4g	4b-
=38	=38	=38	=38
4D	4d	4f	2b-
4BB-	4B-	4d	.
4C	4c	4e-	8a-
.	.	.	8g
=39	=39	=39	=39
4AA-	4A-	4c	4f
4BB-	4G	4B-	4e-
4BB-	4F	4A-	4d
=40	=40	=40	=40
2EE-	2E-	2G	2e-
4r	4r	4r	8b-
.	.	.	8g
=41	=41	=41	=41
2.C	4B-	4d-	4e
.	4A-	4c	4e
.	4G	4B-	4e
=42	=42	=42	=42
2.FF	2F	2A-	2f
.	4r	4r	8cc
.	.	.	8a-
=43	=43	=43	=43
2.D	4c	4e-	4f#
.	4B-	4d	4f#
.	4A	4c	4f#
=44	=44	=44	=44
2GG	2G	2B	2g
4r	4r	4r	4g
=45	=45	=45	=45
2.r	2.r	2.r	8f#
.	.	.	8g
.	.	.	8f#
.	.	.	8g
.	.	.	8f#
.	.	.	8g
=46	=46	=46	=46
2.r	4c	4e-	2G
.	4B	4d	.
.	4r	4g	4r
=47	=47	=47	=47
2.r	2.r	8f#	2.r
.	.	8g	.
.	.	8f#	.
.	.	8g	.
.	.	8f#	.
.	.	8g	.
=48	=48	=48	=48
4c	4e-	2G	8f#
.	.	.	8g
4B	4d	.	8f#
.	.	.	8g
4r	4r	4r	4r
==	==	==	==
*-	*-	*-	*-
!!!RWG1: This file contains only pitch and duration data.
!!!RWG2: Transposing instruments are not transposed.
!!!RWG3: Spines may have incompatible meters.
!!!RWG4: Durations of rests and tied notes may be interpreted.
!!!RWG: Key is interpreted using the Humdrum key tool.
!!!AFT: stage1
!!!END: 1997/04/15
!!!KEY: 1129023507
!!!EMD: Converted from MuseData to Humdrum Dec 16, 2000, by Andreas Kornstaedt using muse2kern.
!!!EMD: Manual editing by Craig Sapp, Nov 2001
